X:1
T:Singing of the Travels
C:Traditional
M:4/4
L:1/4
Q:1/4=112
K:D
a3/2a/2 | f#2 f#d | e2 f#3/2e/2 | ed cB | A4 | A2 AB | c2 BA | G2 F#E | D4- |
D2 d3/2d/2 | cB AG | F#2 F#E | D4 |]
